X:579
T:Prince Charlie'ss Welcome To The Isle of Skye #1
C:Joe Buchanan's Scottish Tome - Page 158.0
I:158 0
Z:Carl Allison
R:Reel
L:1/8
M:4/4
K:D
dB | "D"A2 D2 GFED | ""A2 D2 GFED | "Em"B2 E2 EFGA | "Em"B2 E2 "A"E2 EG |
"D"A2 GF "Bm"d2 cB | "Em"BAGF "A"GFED | "D"FEDB, "A"A,B,DE | "D"F2 D2 D2 :|
de | "D"f2 df "A"e2 ce | "Bm"d2 Ad "A"BAGF | "Em"B2 E2 "F#"EFGB | "Em"B2 E2 "A"E2 de |
"D"f2 df "A"e2 ce | "Bm"d2 Ad "A"BAGF | "G"GFED "A"A,B,DE | "D"F2 D2 D2 :|
W:Variation
%%vskip 5
dB | "D"ADFD GFED | "D"ADFD GFED | "Em"BEGE EFGA | "Em"BEAE "A"EFGA |
"D"AFAF BGcA | "Bm"dcBA "Em"BAGF | "A"GFED A,B,DE | "D"F2 D2 D2 :|
de | "D"fdfd "A"ecec | "Bm"dcBA "(A)"BAGF | "Em"BEGE "F#"EFGA | "Em"BEFE "A"E2 de |
"D"fdfd "A"ecec | "Bm"dcBA "(A)"BAGF | "G"GFED "A"A,B,DE | "D"F2 D2 D2 de |
"D"fedf "A"edce | "Bm"dcBd "(A)"BAGF | "Em"BEeE EFGA | "Em"BEeE "A"EFGg |
"D"fedf "A"edce | "Bm"dcBd "(A)"BAGF | "G"GFED "A"A,B,DE | "D"F2 D2 D2 |]

